X: 36596
T: Shamrock, The
R: slip jig
M: 9/8
K: Gmajor
D|:G2 G BAG B/c/dB|GDG BAG FED|G2 G BAG Bcd|efg dBG FED:|
|:Bcd dBd dBd|Bcd dBG FED|BB/c/d dB/c/d dBG|e/f/ge dB/A/G FED:|
K: Amaj
|:A2 A cBA c2 e|A2 A cBA G2 E|A2 A cBA cde|f2 a efd cBA:|
|:c2 e ece e2 A|c2 e ecA G2 E|c2 e ec/d/e ecA|f2 a ef/e/d cBA:|

